symbols/web/policy/materialsymbolsrounded/policy_wght200grad200_40px.svg

<svg xmlns="http://www.w3.org/2000/svg" height="40" width="40"><path d="M20 23.458q1.417 0 2.458-1.02 1.042-1.021 1.042-2.48 0-1.416-1.042-2.458-1.041-1.042-2.458-1.042-1.417 0-2.458 1.042-1.042 1.042-1.042 2.458 0 1.459 1.042 2.48 1.041 1.02 2.458 1.02Zm0 10.209q2-.584 3.979-2.125 1.979-1.542 3.063-3.167l-3.834-3.792q-.708.5-1.52.75-.813.25-1.688.25-2.333 0-3.979-1.645-1.646-1.646-1.646-3.98 0-2.333 1.646-3.979T20 14.333q2.333 0 3.979 1.646t1.646 3.979q0 .834-.271 1.646-.271.813-.646 1.479l3.5 3.459q1-1.834 1.584-3.854.583-2.021.583-4.271V11q0-.292-.187-.562-.188-.271-.48-.396l-9.375-3.417q-.125-.083-.333-.083-.208 0-.333.083l-9.375 3.417q-.292.125-.48.396-.187.27-.187.562v7.417q0 5.166 2.917 9.458 2.916 4.292 7.458 5.792Zm0 2.083q-.167 0-.333-.021-.167-.021-.209-.062-5.25-1.625-8.604-6.479Q7.5 24.333 7.5 18.417v-7.334q0-1 .562-1.833.563-.833 1.521-1.208l9.334-3.459q.541-.166 1.083-.166.542 0 1.125.166l9.333 3.459q.917.375 1.48 1.187.562.813.562 1.854v7.334q0 5.916-3.354 10.771-3.354 4.854-8.563 6.479-.083.041-.25.062-.166.021-.333.021Zm.333-15.667Z"/></svg>

<svg xmlns="http://www.w3.org/2000/svg" height="40" width="40"><path d="M20 23.458Q21.417 23.458 22.458 22.438Q23.5 21.417 23.5 19.958Q23.5 18.542 22.458 17.5Q21.417 16.458 20 16.458Q18.583 16.458 17.542 17.5Q16.5 18.542 16.5 19.958Q16.5 21.417 17.542 22.438Q18.583 23.458 20 23.458ZM20 33.667Q22 33.083 23.979 31.542Q25.958 30 27.042 28.375L23.208 24.583Q22.5 25.083 21.688 25.333Q20.875 25.583 20 25.583Q17.667 25.583 16.021 23.938Q14.375 22.292 14.375 19.958Q14.375 17.625 16.021 15.979Q17.667 14.333 20 14.333Q22.333 14.333 23.979 15.979Q25.625 17.625 25.625 19.958Q25.625 20.792 25.354 21.604Q25.083 22.417 24.708 23.083L28.208 26.542Q29.208 24.708 29.792 22.688Q30.375 20.667 30.375 18.417V11Q30.375 10.708 30.188 10.438Q30 10.167 29.708 10.042L20.333 6.625Q20.208 6.542 20 6.542Q19.792 6.542 19.667 6.625L10.292 10.042Q10 10.167 9.812 10.438Q9.625 10.708 9.625 11V18.417Q9.625 23.583 12.542 27.875Q15.458 32.167 20 33.667ZM20 35.75Q19.833 35.75 19.667 35.729Q19.5 35.708 19.458 35.667Q14.208 34.042 10.854 29.188Q7.5 24.333 7.5 18.417V11.083Q7.5 10.083 8.062 9.25Q8.625 8.417 9.583 8.042L18.917 4.583Q19.458 4.417 20 4.417Q20.542 4.417 21.125 4.583L30.458 8.042Q31.375 8.417 31.938 9.229Q32.5 10.042 32.5 11.083V18.417Q32.5 24.333 29.146 29.188Q25.792 34.042 20.583 35.667Q20.5 35.708 20.333 35.729Q20.167 35.75 20 35.75ZM20.333 20.083Q20.333 20.083 20.333 20.083Q20.333 20.083 20.333 20.083Q20.333 20.083 20.333 20.083Q20.333 20.083 20.333 20.083Q20.333 20.083 20.333 20.083Q20.333 20.083 20.333 20.083Q20.333 20.083 20.333 20.083Q20.333 20.083 20.333 20.083Q20.333 20.083 20.333 20.083Q20.333 20.083 20.333 20.083Q20.333 20.083 20.333 20.083Q20.333 20.083 20.333 20.083Q20.333 20.083 20.333 20.083Q20.333 20.083 20.333 20.083Z"/></svg>
